dist/img/sprites/icons8-settings.svg

<svg width="48" height="48" viewBox="0 0 48 48" fill="none" xmlns="http://www.w3.org/2000/svg">
<path d="M39.2543 21.0173C39.9743 21.141 40.5 21.765 40.5 22.4955V25.5045C40.5 26.235 39.9743 26.859 39.2543 26.9828L36.6562 27.4298C36.36 28.5255 35.9295 29.5642 35.376 30.5265L36.8955 32.6775C37.317 33.2737 37.2472 34.0875 36.7312 34.6035L34.6035 36.7312C34.0868 37.248 33.2737 37.317 32.6775 36.8955L30.5265 35.3767C29.5642 35.9302 28.5255 36.36 27.4298 36.657L26.9828 39.255C26.859 39.9743 26.235 40.5 25.5045 40.5H22.4955C21.765 40.5 21.141 39.9743 21.0173 39.2543L20.5703 36.6562C19.4745 36.36 18.4358 35.9295 17.4735 35.376L15.3225 36.8948C14.7263 37.3163 13.9125 37.2465 13.3965 36.7305L11.2687 34.6028C10.7527 34.086 10.683 33.273 11.1045 32.6768L12.624 30.5258C12.0705 29.5635 11.64 28.5247 11.3438 27.429L8.74575 26.982C8.02575 26.859 7.5 26.235 7.5 25.5045V22.4955C7.5 21.765 8.02575 21.141 8.74575 21.0173L11.3438 20.5703C11.64 19.4745 12.0705 18.4358 12.624 17.4735L11.1045 15.3225C10.683 14.7263 10.7527 13.9125 11.2687 13.3965L13.3965 11.2687C13.9132 10.7527 14.7263 10.683 15.3225 11.1045L17.4735 12.624C18.4358 12.0705 19.4745 11.6407 20.5703 11.3438L21.0173 8.74575C21.141 8.02575 21.765 7.5 22.4955 7.5H25.5045C26.235 7.5 26.859 8.02575 26.9828 8.74575L27.4298 11.3438C28.5255 11.64 29.5642 12.0705 30.5265 12.624L32.6775 11.1045C33.2737 10.683 34.0875 10.7527 34.6035 11.2687L36.7312 13.3965C37.2472 13.9125 37.317 14.7263 36.8955 15.3225L35.376 17.4735C35.9295 18.4358 36.36 19.4745 36.6562 20.5703L39.2543 21.0173ZM24 30C27.3135 30 30 27.3135 30 24C30 20.6865 27.3135 18 24 18C20.6865 18 18 20.6865 18 24C18 27.3135 20.6865 30 24 30Z" fill="white"/>
</svg>

<svg width="48" height="48" viewBox="0 0 48 48" fill="none" xmlns="http://www.w3.org/2000/svg"><path d="M39.254 21.017a1.5 1.5 0 011.246 1.479v3.009a1.5 1.5 0 01-1.246 1.478l-2.598.447a13.016 13.016 0 01-1.28 3.096l1.52 2.152a1.5 1.5 0 01-.165 1.925l-2.128 2.128a1.5 1.5 0 01-1.925.164l-2.151-1.518a13.05 13.05 0 01-3.097 1.28l-.447 2.598a1.5 1.5 0 01-1.479 1.245h-3.009a1.5 1.5 0 01-1.478-1.246l-.447-2.598a13.015 13.015 0 01-3.096-1.28l-2.152 1.519a1.5 1.5 0 01-1.925-.165l-2.128-2.127a1.5 1.5 0 01-.165-1.926l1.52-2.151a13.017 13.017 0 01-1.28-3.097l-2.598-.447A1.498 1.498 0 017.5 25.505v-3.01a1.5 1.5 0 011.246-1.478l2.598-.447a13.015 13.015 0 011.28-3.096l-1.52-2.152a1.5 1.5 0 01.165-1.925l2.127-2.128a1.5 1.5 0 011.926-.165l2.152 1.52a13.044 13.044 0 013.096-1.28l.447-2.598A1.5 1.5 0 0122.496 7.5h3.009a1.5 1.5 0 011.478 1.246l.447 2.598c1.096.296 2.134.726 3.096 1.28l2.152-1.52a1.5 1.5 0 011.925.165l2.128 2.127a1.5 1.5 0 01.164 1.926l-1.519 2.152c.553.962.984 2 1.28 3.096l2.598.447zM24 30a6 6 0 100-12 6 6 0 000 12z" fill="#fff"/></svg>
